img/logo.svg

<?xml version="1.0" encoding="UTF-8"?>
<svg xmlns="http://www.w3.org/2000/svg" xmlns:xlink="http://www.w3.org/1999/xlink" width="375pt" height="375pt" viewBox="0 0 375 375" version="1.1">
    <defs>
        <clipPath id="clip1">
            <path d="M 18.75 18.75 L 356.25 18.75 L 356.25 356.25 L 18.75 356.25 Z M 18.75 18.75 " />
        </clipPath>
    </defs>
    <g id="surface1">
        <g clip-path="url(#clip1)" clip-rule="nonzero">
            <path style="stroke:none;fill-rule:nonzero;fill:rgb(154, 0, 255);fill-opacity:1;" d="M 356.25 187.5 C 356.25 198.582031 355.167969 209.554688 353.007812 220.421875 C 350.847656 231.289062 347.644531 241.839844 343.40625 252.078125 C 339.164062 262.316406 333.964844 272.039062 327.808594 281.253906 C 321.65625 290.464844 314.660156 298.988281 306.824219 306.824219 C 298.988281 314.660156 290.464844 321.65625 281.253906 327.808594 C 272.039062 333.964844 262.316406 339.164062 252.078125 343.40625 C 241.839844 347.644531 231.289062 350.847656 220.421875 353.007812 C 209.554688 355.167969 198.582031 356.25 187.5 356.25 C 176.417969 356.25 165.445312 355.167969 154.578125 353.007812 C 143.710938 350.847656 133.160156 347.644531 122.921875 343.40625 C 112.683594 339.164062 102.960938 333.964844 93.746094 327.808594 C 84.535156 321.65625 76.011719 314.660156 68.175781 306.824219 C 60.339844 298.988281 53.34375 290.464844 47.191406 281.253906 C 41.035156 272.039062 35.835938 262.316406 31.59375 252.078125 C 27.355469 241.839844 24.152344 231.289062 21.992188 220.421875 C 19.832031 209.554688 18.75 198.582031 18.75 187.5 C 18.75 176.417969 19.832031 165.445312 21.992188 154.578125 C 24.152344 143.710938 27.355469 133.160156 31.59375 122.921875 C 35.835938 112.683594 41.035156 102.960938 47.191406 93.746094 C 53.34375 84.535156 60.339844 76.011719 68.175781 68.175781 C 76.011719 60.339844 84.535156 53.34375 93.746094 47.191406 C 102.960938 41.035156 112.683594 35.835938 122.921875 31.59375 C 133.160156 27.355469 143.710938 24.152344 154.578125 21.992188 C 165.445312 19.832031 176.417969 18.75 187.5 18.75 C 198.582031 18.75 209.554688 19.832031 220.421875 21.992188 C 231.289062 24.152344 241.839844 27.355469 252.078125 31.59375 C 262.316406 35.835938 272.039062 41.035156 281.253906 47.191406 C 290.464844 53.34375 298.988281 60.339844 306.824219 68.175781 C 314.660156 76.011719 321.65625 84.535156 327.808594 93.746094 C 333.964844 102.960938 339.164062 112.683594 343.40625 122.921875 C 347.644531 133.160156 350.847656 143.710938 353.007812 154.578125 C 355.167969 165.445312 356.25 176.417969 356.25 187.5 Z M 356.25 187.5 " />
        </g>
        <path style="stroke:none;fill-rule:nonzero;fill:#fff;fill-opacity:1;" d="M 145.648438 303.871094 L 53.625 211.851562 L 90.289062 175.179688 L 145.648438 230.53125 L 284.6875 91.480469 L 321.367188 128.144531 Z M 145.648438 303.871094 " />
    </g>
</svg>

<svg xmlns="http://www.w3.org/2000/svg" width="500" height="500" viewBox="0 0 375 375"><defs><clipPath id="a"><path d="M18.75 18.75h337.5v337.5H18.75zm0 0"/></clipPath></defs><g clip-path="url(#a)"><path d="M356.25 187.5a168.46 168.46 0 01-3.242 32.922 168.41 168.41 0 01-9.602 31.656 168.496 168.496 0 01-15.597 29.176 168.197 168.197 0 01-20.985 25.57 168.197 168.197 0 01-25.57 20.985 168.496 168.496 0 01-29.176 15.597 168.41 168.41 0 01-31.656 9.602 168.449 168.449 0 01-32.922 3.242 168.449 168.449 0 01-32.922-3.242 168.41 168.41 0 01-31.656-9.602 168.496 168.496 0 01-29.176-15.597 168.197 168.197 0 01-25.57-20.985 168.197 168.197 0 01-20.985-25.57 168.496 168.496 0 01-15.597-29.176 168.41 168.41 0 01-9.602-31.656A168.449 168.449 0 0118.75 187.5a168.46 168.46 0 013.242-32.922 168.41 168.41 0 019.602-31.656A168.496 168.496 0 0147.19 93.746a168.197 168.197 0 0120.985-25.57 168.197 168.197 0 0125.57-20.985 168.496 168.496 0 0129.176-15.597 168.41 168.41 0 0131.656-9.602A168.449 168.449 0 01187.5 18.75a168.46 168.46 0 0132.922 3.242 168.41 168.41 0 0131.656 9.602 168.496 168.496 0 0129.176 15.597 168.197 168.197 0 0125.57 20.985 168.197 168.197 0 0120.985 25.57 168.496 168.496 0 0115.597 29.176 168.41 168.41 0 019.602 31.656 168.449 168.449 0 013.242 32.922zm0 0" fill="#9a00ff"/></g><path d="M145.648 303.871l-92.023-92.02 36.664-36.671 55.36 55.351 139.038-139.05 36.68 36.664zm0 0" fill="#fff"/></svg>
